p <- prog4

d1 $ midinote "36" #ch 1

d1 $ midinote "{36 [36 36] <43 34 60> }" #ch 12
  -- >> silence

d1 $ (cat $ note <$> (`toScale` "[0 [3 <10 11 12>] 1 [2 <8 7 [6 8]>]]") <$> (fmap fromInteger <$> p))
  |- note 24 #ch 12
  -- >> silence

d1 $ (cat $ note <$> (`toScale` "[[0@3 <12 11>] [1 4] <2 4 [7 8]> 3]") <$> (fmap fromInteger <$> p)) |- note (24) #ch 1
  -- >> silence

d10 $ midinote "[69*2, [~ 73!3]*2]" #ch 10

d10 $ midinote "[~ 73]*2" #ch 10

d1 $ (cat $ note <$> (`toScale` "[[[-3*2],<~ <2 [1 3]>>]*4]") <$> (fmap fromInteger <$> p)) #ch 1

hush

prog4
