prog <- prog4

prog = [   [-1,4,8]       ,   [-3,0,4]       ,   [-3,0,4]       ,   [-2,2,5]       ]

d2 $ stack [
midinote "[36 ~ ~ 37 ~ 36 ~ ~ ~ 37 ~ 36]",
-- midinote "[[43]*8]",
silence
] #ch 10

d1 $ (cat $ note <$> (`toScale` "[[[-3*2],<~ <2 [1 [3 4 5 6]]>>]*4]") <$> (fmap fromInteger <$> prog)) #ch 12

d1 $ (cat $ note <$> (`toScale` "[-3 4 5 6 7 -6 9 8 7 6 5 4]") <$> (fmap fromInteger <$> prog)) #ch 12

hush


once $ bpm 130

  -- YSYAKH
mapM_ id [p "transport" $ do
  let
    out = 999999
    part = rh 1 out
    k = mode (5-7) $ F \\\ mMaj
    -- ysyakhDynamic = (slow 12 $ lfo saw 1.2 1.5)
    -- swing = swingBy 0.04 2
    -- theme = swing $ note (k "[[-4,3]@3 7 . ~!2 6 7  . ~ 6 5 ~ . <[4 5 6 ~] [4 [-5,2]]>]/4" |- 12)
  --
  seqP $ sync out ++ [runSeq
    -- ,rh 0 4 $ meter 118 4 4
    -- ,part $ slow 2 $ (k "[0!4]" - 24) |+ (slow 8 $ k "[3 2] 0 4 0") #ch 1
    -- ,part $ (k "[0*2]" - 24) |+ (slow 16 $ k "[0 2 -3!2]") #ch 12
    ,part $ slow 4 $ (cat $ note <$> (`toScale` "[-3 4 5 6 7 -6 9 8 7 6 5 4]") <$> (fmap fromInteger <$> prog)) #ch 12
    ,part $ slow 4 $ midinote "[36 ~ ~ 37 ~ 36 ~ ~ ~ 37 ~ 36]" #ch 10
  --
    ]
  --
  ,resetCycles
  -- ,once assigncc1
  ,allNotesOff
  ,setcps (118/60)
  ,hush
  ]

 hush''
