








do -- LAUNCHER
  let
    dyn = 0.9
    rep = 2
    s = c
    (d,r) = ((*dyn),rep)
    -- f = composition
    -- k = keySig
  mapM_ id [hush
    ,p01 s r $d 0.7
    ]


 -- TRANSPORT
mapM_ id [p "transport" $ do
  let
    out = 999999
  --
  seqP $ sync out ++ [runSeq
  --
    -- ]
  --
  ,resetCycles
  -- ,allNotesOff
  -- ,setcps (118/60)
  -- ,hush
  ]














hush''

runWith adagio
runWith andante
runWith moderato
runWith allegro

keySig = A \\\ aeolian

hush
